X:25
T:Young Girl Milking the Cow, The
T:Pretty Girl Milking Her Cow, The
T:An Cail\'in Deas Ag Cr\'uite Na mB\'o
R:air
H:See also The Banks of Sullane, song#93
H:Also played as a slow air
Z:id:hn-air-25
M:3/4
L:1/8
Q:1/4=120
K:Ador
AB | c2 e3 c | B2 d3 B | A2 G4- | G4 AB |
c2 e3 c | B2 d3 B | A6- | A4 AB | 
c2 e3 c | B2 g3 B | A2 G4- | G4 gf |
ed cB AG | E2 A3 B | A6- | A4 :|
|: AB | c3 def | g3 edB | A2 G4- | G4 AB |
c3 def | g2 e2 g2 | a6- | a4 ba | 
g3 edB | d3 BdB | A2 G4- | G4 gf |
ed cB AG | E2 A3 B | A6- | A4 :|

